X:4445
T:Mrs.McLeod. HSJJ.147
O:england
M:4/4
L:1/8
Q:200
S:HSJ Jackson,Wyresdale,Lancs.1823
R:Reel
A:Lancashire
H:1823
K:G
G2g2 e>deg|BBBAB2BA|G2g2efeg|AA>AGA2AB|
G2g2e>deg|BBB>A B2d2|e>fede2 de/f/|g2dBA2AB|
|GG>BG dBBg|BBB>AB2BA|GG>BG dBBg|AAAGA2AB|
GG>BG dBBg|BBB>AB2Bd|e>fede2 de/f|g2dBA2AB|]
